T: After The Battle Of Aughrim
M: 2/4
L: 1/8
K: Ador
G|E2A2 A2Bd|eged c2A2|B2G2 G3A|BGAG EGD2|E2A2 A2Bd|eged e2ag|eged BedB|A4 A3:|g|a2e2 e2fg|a2e2 e3g|a2af gage|dedB G2E2|a2e2 e2fg|a2e2 e3d|B2e2 d2B2|A4 A3:|
